**kern	**kern	**dynam
*part1	*part1	*part1
*staff2	*staff1	*
*I"Piano	*	*
*clefF4	*clefF4	*
*k[]	*k[]	*
=1	=1	=1
4.EE	4.E 4.A 4.c#X	.
8EE	8E 8A 8cn	.
8EEL	8DL 8E 8G#X 8B	.
8EEJ	8C#XJ 8E 8Gn 8A#X	.
=	=	=
!	!LO:TX:b:i:t=cresc.	!
4.EE	4.D 4.E 4.G#X 4.B	.
8EE	8C#X 8E 8Gn 8A#X	.
[4EE	[4D [4E [4G#X [4B	.
=	=	=
8EEL]	8DL] 8E] 8G#] 8B]	.
8EEJ	8C#XJ 8E 8Gn 8A#X	ff
[4EE	[4D [4E [4G#X [4B	>
8.EEL]	8.DL] 8.E] 8.G#] 8.B]	.
16EEJk	16DJk 16E 16G# 16B	.
=	=	=
8AAA 8AA	8C#X 8E 8A	] p
4AA	4A	>
8AAL	8AL	.
8AA	8A	.
8AAJ	8AJ 8B	.
=	=	=
4AA 4E	4A 4cn	] pp
*	*clefG2	*
2AA 2C	2A 2e	>
=	=	=
4.FF 4.C	4.A 4.g	.
8FFL 8C	8AL 8f	.
8FF 8C	8A 8c	.
8FFJ 8AA	8AJ 8d	.
=	=	=
2.EE 2.BB	2.G#X 2.e	] ppp
*	*clefF4	*
=	=	=
2.AAA; 2.AA	2.E; 2.A 2.c	.
==	==	==
*-	*-	*-
!!!system-decoration: {(s1,s2)}
